packages/icons/src/emoji/svg/palm-tree.svg

<svg width="120" height="120" viewBox="0 0 120 120" fill="none" xmlns="http://www.w3.org/2000/svg">
<path d="M59.222 54.5717C59.1845 54.7967 59.4001 55.0967 59.8313 55.6592C60.9282 57.0842 61.2563 59.2123 61.697 60.9279C62.3345 63.4498 62.822 66.1966 63.0845 68.7654C63.3282 71.2216 63.7032 73.4998 63.7032 75.9842V83.7467C63.7032 89.2779 62.7657 94.8279 61.997 100.219C61.7251 102.094 61.1532 104.137 60.6845 105.984C60.4876 106.753 60.4595 107.569 60.2813 108.328C60.2532 108.45 60.2157 108.572 60.1876 108.694C59.0157 112.34 59.372 115.556 60.1688 116.372C61.5282 117.769 63.4313 118.762 65.1376 119.212C69.0282 120.244 73.4532 120.262 77.1938 118.669C80.6813 117.187 79.8845 114.187 80.4845 110.934C80.8313 109.022 81.0376 106.912 81.0376 104.878C81.0376 100.2 81.197 95.4841 80.7657 90.8623C80.2126 84.8623 79.322 78.8623 78.0095 72.8998C77.1938 69.206 76.5376 65.756 75.047 62.231C74.3157 60.4873 73.547 58.9592 72.572 57.356C71.6438 55.8373 71.1657 54.3935 69.647 53.4185C69.2813 53.1842 67.0595 51.2342 66.647 51.3935C64.5938 52.2092 62.5407 53.0154 60.4876 53.831C59.6626 54.1591 59.2595 54.3092 59.222 54.5717Z" fill="#855C52"/>
<path d="M114.018 61.0501C113.568 54.8157 111.384 48.0564 106.256 44.1282C103.837 42.2814 100.331 40.9032 97.434 40.0595C89.6996 37.8189 80.6152 39.2532 72.7121 42.3376C74.5684 40.7064 76.4715 39.1032 78.4871 37.7157C80.5684 36.2814 82.6965 34.9689 84.9559 33.8157C85.5465 33.5157 85.9777 33.422 85.9027 32.6907C85.8652 32.3064 85.6684 31.9501 85.5184 31.5657C85.0309 30.3751 84.2059 29.5126 83.5121 28.4345C82.7621 27.2907 81.5434 25.997 81.7027 24.5532C82.3027 24.347 83.634 25.247 84.2152 25.4814C85.284 25.922 86.2777 26.4095 87.309 26.9251C88.1715 27.3564 89.0434 27.7782 89.8871 28.247C90.3652 28.5189 91.0215 29.1564 91.5652 29.2501C92.4746 29.4189 93.4402 28.4532 94.1996 28.0782C94.7527 27.8064 94.959 27.8532 94.7246 27.2064C94.3308 26.1095 93.8152 25.1907 93.384 24.1407C92.934 23.0345 92.5215 21.8345 92.6715 20.6157C93.5059 20.3251 95.3715 21.8626 96.0183 22.2751C96.6746 22.6876 97.3965 23.147 97.9965 23.6626C98.5027 24.0939 98.8027 24.8907 99.5434 24.8251C99.9465 24.797 100.303 24.4314 100.659 24.2907C101.287 24.047 101.634 23.7189 102.215 23.4001C103.35 22.772 104.559 22.1439 105.731 21.5814C107.128 20.9157 107.053 20.6251 106.115 19.4064C105.59 18.722 104.887 18.1595 104.25 17.5876C102.525 16.0595 100.912 15.0751 98.8402 14.1282C98.0808 13.7814 97.2277 13.7345 96.4871 13.3501C95.7934 13.0032 95.1559 12.8626 94.3684 12.7407C92.6902 12.4595 90.984 12.3095 89.2777 12.2532C78.3934 11.897 68.4277 19.6501 64.2934 29.5876C64.1527 26.9345 64.2559 24.2439 64.2559 21.5907C64.2559 20.6907 64.1902 19.8751 64.3496 18.9939C64.4621 18.3657 64.7715 16.1345 64.209 15.8157C63.4215 15.3751 56.6809 15.4689 57.1121 14.5782C57.5246 13.7251 59.1465 13.4532 59.9434 13.1907C60.9371 12.8626 61.9496 12.6376 62.9152 12.2345C63.6277 11.9439 64.6496 12.0001 65.2402 11.4845C65.6996 11.0814 65.6527 10.3126 65.7746 9.77824C65.9434 9.00949 68.0621 0.281363 67.3215 0.0844881C66.8996 -0.0280119 66.1027 0.281363 65.6621 0.337613C65.0059 0.431363 64.3309 0.665738 63.6934 0.853238C62.7934 1.11574 61.8371 1.36886 60.9746 1.75324C59.0527 2.60636 57.1684 3.60011 55.4059 4.76261C54.534 5.33449 53.6902 5.94386 52.8934 6.60011C49.134 9.69386 46.3496 13.6876 45.4121 18.6095C44.559 23.0626 46.1246 27.4782 48.3277 31.3407C46.2746 29.9907 44.1371 28.7626 41.9246 27.722C34.4715 24.2251 25.0777 25.2282 18.0277 29.2501C15.5902 30.6376 13.1246 32.4939 11.1465 34.4907C9.27148 36.3845 6.59961 40.4064 6.07461 43.0782C5.97148 43.622 5.88711 44.1845 5.80273 44.7376C5.84023 44.7376 5.88711 44.747 5.92461 44.747C6.87148 44.822 16.8277 46.097 16.9871 45.0282C17.109 44.2032 17.8215 43.4064 18.1684 42.6657C19.1902 40.4907 22.3309 36.2626 25.2934 36.9095C25.4152 37.547 25.0215 37.997 24.7777 38.5782C24.3934 39.5064 24.0277 40.4345 23.6434 41.3626C23.1559 42.5532 22.6309 43.5845 22.7996 44.8876C24.0184 45.0376 25.3496 44.9064 26.5777 44.9064C27.6465 44.9064 28.7152 45.0189 29.784 44.8876C29.8121 44.8876 30.6184 42.3657 30.7496 42.0189C31.1809 40.9689 31.8652 40.1157 32.6152 39.272C33.0184 38.822 34.0215 37.6595 34.7059 37.8939C34.8465 37.9407 34.3121 42.8439 34.2746 43.2095C34.1809 43.9595 33.9465 44.6814 34.0402 45.4407C36.4309 46.0782 38.934 45.9751 41.3715 46.2189C42.4402 46.3314 43.5184 46.5189 44.5871 46.7251C44.5215 46.7251 44.4559 46.7345 44.3902 46.7345C41.1184 46.997 37.8559 47.5501 34.7152 48.5064C28.4715 50.4001 22.3684 53.5501 18.0465 58.4626C13.8746 63.2064 11.4371 72.0751 11.9902 78.2907C12.2059 80.6345 12.1965 81.2439 12.6371 83.5595C12.9184 85.0407 13.1902 86.8126 14.0246 88.1064C14.3434 88.6126 15.5059 90.7595 16.3027 90.1407C16.8746 89.7001 17.184 88.8095 17.6059 88.2189C18.7402 86.6439 19.9309 85.1157 21.0559 83.5314C21.5621 82.8189 23.3621 81.1032 23.0152 80.1845C22.6121 79.1345 22.4996 77.9251 22.3684 76.8189C22.1809 75.2251 22.0871 73.5939 22.2184 71.9907C22.2746 71.297 22.3684 70.5939 22.6027 69.9376C22.7059 69.647 23.2402 68.5126 23.6434 68.6439C23.8309 68.7001 23.8496 69.5439 23.8684 69.6939C23.9434 70.3314 23.9996 70.9689 24.0559 71.6064C24.1215 72.3657 24.1121 73.1064 24.2715 73.8564C24.459 74.7564 24.7684 75.6189 25.0402 76.5001C25.1902 76.9876 25.3871 77.672 25.809 78.0001C26.2965 78.3751 26.8027 77.747 27.1309 77.4189C27.9934 76.5657 28.8465 75.6564 29.6434 74.7751C29.9902 74.3907 30.2434 73.922 30.5809 73.5095C30.684 73.3876 30.909 73.2751 30.9746 73.1345C31.0965 72.872 30.8809 72.2814 30.8246 72.0001C30.7121 71.4939 30.5152 70.997 30.4309 70.4814C30.2434 69.3845 30.3184 68.2876 30.4309 67.1907C30.4965 66.5251 30.3559 64.772 30.9746 64.3314C31.4434 63.9939 31.3402 64.772 31.3402 65.0439C31.3402 66.4314 31.6496 67.772 32.0902 69.0845C32.2777 69.6376 32.4465 70.3126 32.8402 70.7626C33.384 71.372 33.9184 70.622 34.3496 70.2282C35.709 68.972 37.0684 67.7157 38.4465 66.4782C38.7371 66.2157 39.0371 65.9532 39.3371 65.6907C39.9652 65.1657 40.6121 64.6595 41.2496 64.1439C39.8434 66.2626 38.7371 68.5689 38.0902 71.0157C37.3027 73.9501 36.8527 77.7751 37.3215 80.7845C37.7434 83.522 38.7465 86.6251 40.284 88.9595C41.4934 90.7876 43.5277 92.7845 45.5152 93.7595C46.8371 94.4064 48.1027 90.4782 48.384 89.7564C48.8059 88.6314 49.1152 87.4407 49.5934 86.3345C49.9684 85.4532 51.0184 83.8595 50.4465 82.9126C50.2027 82.4907 49.8746 82.1251 49.6309 81.6657C48.2621 79.1251 46.3965 76.8657 46.7527 73.7532C47.109 73.8282 47.4652 74.4282 47.6621 74.747C48.1215 75.5157 48.5152 76.3407 49.0402 77.0626C49.5559 77.7751 49.9121 78.6095 50.5496 79.2657C50.9715 79.697 51.3184 80.2689 51.8902 80.5407C52.6402 80.897 52.7902 79.9876 52.9402 79.4626C53.1934 78.5439 53.7277 77.7657 54.084 76.8939C54.4215 76.0782 54.8902 75.3189 55.2465 74.5032C55.5746 73.7532 56.259 72.8251 56.109 71.9626C56.0246 71.4845 55.5746 71.0907 55.3496 70.6501C55.0496 70.0126 54.7496 69.3751 54.4871 68.7189C54.2902 68.2032 54.1121 67.6689 53.9715 67.1439C53.8965 66.872 53.8965 66.3095 53.7465 66.1314C54.0559 66.6189 54.8527 67.0314 55.284 67.4439C55.6777 67.8095 57.0465 69.4501 57.6934 69.0564C58.584 68.5126 58.8371 67.2751 59.2402 66.3939C59.7746 65.1751 60.459 64.0595 60.9465 62.8407C61.5559 61.2845 62.5215 60.047 63.4309 58.6782C64.059 57.722 64.8371 56.9157 65.4465 55.9595C65.7934 55.4157 66.6371 54.5251 66.8434 53.8689C70.9965 54.872 75.2809 55.6595 79.3496 56.9907C80.9809 57.5157 82.5746 58.1814 84.1871 58.772C85.359 59.2032 86.6059 59.3157 87.7965 59.6907C88.4715 59.9064 89.2402 60.4689 89.6996 59.6626C90.0277 59.072 90.1121 58.3314 90.4308 57.6939C90.8434 56.8689 91.059 56.0439 91.2652 55.1532C91.434 54.4876 91.4621 53.7001 91.7246 53.0814C91.9027 52.6782 92.1559 51.7314 92.4934 51.4595C93.2152 50.8876 93.3746 52.1439 93.5527 52.7345C94.134 54.722 93.9933 57.0095 93.9465 59.0626C93.9184 60.0095 93.5715 60.947 93.684 61.8845C94.1152 61.8751 94.5559 62.1939 94.959 62.3251C95.6152 62.5501 96.3277 62.6907 97.0027 62.8595C97.4059 62.9532 98.2027 63.3282 98.5871 63.2814C99.1027 63.2157 99.0559 62.7657 99.3184 62.3532C100.012 61.2939 100.5 60.0564 100.94 58.847C101.503 57.3189 101.606 55.622 102.412 54.1876C102.44 54.1314 103.003 55.4532 103.04 55.5751C103.34 56.4939 103.546 57.2064 103.668 58.1439C103.734 58.6126 103.875 59.0814 103.95 59.5501C104.071 60.3282 104.062 61.097 104.062 61.9032C104.062 63.2251 103.921 64.6501 104.081 65.9532C105.056 66.0939 105.956 66.8439 106.875 67.1532C107.578 67.3876 113.465 69.5814 113.465 69.7595C113.446 69.2157 113.709 68.6439 113.765 68.1001C113.831 67.3876 113.906 66.7032 114.056 65.9907C114.346 64.4064 114.14 62.6626 114.018 61.0501Z" fill="#757F3F"/>
<path d="M43.5933 65.5968C43.3214 65.7656 43.1527 66.1406 43.0027 66.4312C42.1402 68.0625 41.4745 69.8156 41.0058 71.6062C40.312 74.2687 40.0777 77.0718 40.462 79.8C40.7058 81.5906 41.2402 83.3437 41.9902 84.9937C42.3745 85.8281 42.8058 86.625 43.2933 87.4031C43.7152 88.0687 44.137 89.3625 45.1214 88.6593C45.6558 88.2843 46.5183 86.8687 46.2839 86.1656C45.7402 84.5625 44.6902 83.1281 44.0714 81.525C43.4058 79.8093 43.1339 77.9437 43.0495 76.1062C42.9839 74.5593 43.0589 73.0031 43.2464 71.4656C43.3589 70.5656 43.4995 69.6843 43.6777 68.7937C43.7714 68.3156 43.8745 67.8375 43.987 67.3687C44.062 67.0312 44.5589 64.9968 43.5933 65.5968ZM37.3777 49.9687C37.2991 49.9149 37.2094 49.8794 37.1153 49.8648C37.0213 49.8502 36.9251 49.8569 36.8339 49.8843C35.1464 50.3437 33.487 50.9718 31.8745 51.675C29.4464 52.7343 27.112 54.0187 24.9745 55.5937C22.5277 57.3843 20.3339 59.5593 18.6839 62.1187C16.7433 65.1468 15.5245 68.5875 15.037 72.15C14.662 74.9625 14.7277 77.8406 15.1589 80.6437C15.2902 81.4781 15.4589 82.3125 15.6558 83.1375C15.7964 83.7375 15.8995 84.6562 16.3589 85.0781C16.7714 85.4437 16.9589 85.0968 17.2495 84.7687C17.7464 84.2156 18.2808 83.6812 18.7402 83.1C19.087 82.6687 19.0777 82.0875 18.9464 81.5625C18.712 80.6812 18.5339 79.7812 18.4026 78.8718C18.2151 77.5593 18.112 76.2281 18.112 74.8968C18.112 73.275 18.2714 71.6531 18.5902 70.0593C18.9557 68.2347 19.5445 66.462 20.3433 64.7812C21.262 62.85 22.462 61.0687 23.8777 59.475C25.5745 57.5718 27.562 55.9312 29.7089 54.5625C30.9755 53.7573 32.2905 53.0309 33.6464 52.3875C34.387 52.0312 35.137 51.7031 35.8964 51.3937C36.3089 51.225 37.3964 51.0562 37.5558 50.55C37.6214 50.2875 37.537 50.0812 37.3777 49.9687ZM10.9026 41.1937C10.5745 40.5281 11.1651 39.8531 11.6245 39.1593C13.612 36.1125 16.2839 33.4968 19.387 31.5937C22.1902 29.8687 25.3308 28.7625 28.5651 28.2187C29.6152 28.0406 30.6652 27.9562 31.7152 27.8906C32.062 27.8718 35.7933 27.5437 34.912 28.7343C34.6777 29.0437 34.0683 29.0531 33.7214 29.0812C32.7839 29.1656 31.8464 29.3062 30.9277 29.5031C29.1183 29.8875 27.3558 30.4593 25.6683 31.2093C23.3995 32.2125 21.262 33.5437 19.3777 35.1656C18.0089 36.3375 16.8183 37.6968 15.7308 39.1312C15.0933 39.975 14.5683 41.4093 13.4995 41.8218C12.8995 42.0562 11.737 42.0562 11.2308 41.6156C11.0808 41.475 10.9683 41.3343 10.9026 41.1937ZM54.262 9.27184C54.1495 9.21559 53.9995 9.20622 53.8214 9.27184C53.4183 9.40309 52.7339 10.2468 52.4433 10.5562C50.3995 12.7593 49.237 15.8906 48.8339 18.8343C48.5902 20.55 48.6933 22.3031 49.0683 24C49.2558 24.8531 49.5183 25.6968 49.837 26.5125C50.0058 26.9437 50.1089 27.3281 50.4652 27.6281C50.7933 27.9187 51.1402 27.9 51.5058 27.6937C51.7495 27.5531 52.1339 27.3187 52.3214 27.1031C52.7339 26.625 52.1995 25.8937 52.0402 25.4156C51.562 24.0093 50.962 22.6218 50.7933 21.1406C50.6245 19.65 50.8308 18.0843 51.1683 16.6218C51.5433 14.9812 52.1527 13.3968 52.987 11.9437C53.3902 11.2406 53.8777 10.6125 54.3277 9.94684C54.5245 9.62809 54.4589 9.37497 54.262 9.27184Z" fill="#BDCF46"/>
</svg>

<svg xmlns="http://www.w3.org/2000/svg" fill="none" aria-hidden="true" data-slot="icon" viewBox="0 0 120 120"><path fill="#855C52" d="M59.222 54.572c-.038.225.178.525.61 1.087 1.096 1.425 1.424 3.553 1.865 5.269a56 56 0 0 1 1.387 7.837c.244 2.457.62 4.735.62 7.22v7.762c0 5.53-.938 11.08-1.707 16.472-.272 1.875-.844 3.918-1.312 5.765-.197.769-.226 1.585-.404 2.344-.028.122-.065.244-.093.366-1.172 3.646-.816 6.862-.02 7.678 1.36 1.397 3.263 2.39 4.97 2.84 3.89 1.032 8.315 1.05 12.056-.543 3.487-1.482 2.69-4.482 3.29-7.735.347-1.912.554-4.022.554-6.056 0-4.678.159-9.394-.272-14.016-.553-6-1.444-12-2.757-17.962-.815-3.694-1.471-7.144-2.962-10.669a35.5 35.5 0 0 0-2.475-4.875c-.928-1.519-1.406-2.962-2.925-3.937-.366-.235-2.588-2.185-3-2.025-2.053.815-4.106 1.621-6.16 2.437-.824.328-1.227.478-1.265.74"/><path fill="#757F3F" d="M114.018 61.05c-.45-6.234-2.634-12.994-7.762-16.922-2.419-1.847-5.925-3.225-8.822-4.068-7.734-2.241-16.819-.807-24.722 2.278 1.856-1.632 3.76-3.235 5.775-4.622 2.081-1.435 4.21-2.747 6.469-3.9.59-.3 1.022-.394.947-1.125-.038-.385-.235-.74-.385-1.125-.487-1.19-1.312-2.053-2.006-3.131-.75-1.144-1.969-2.438-1.81-3.882.6-.206 1.932.694 2.513.928 1.069.441 2.063.928 3.094 1.444.862.431 1.734.853 2.578 1.322.478.272 1.135.91 1.678 1.003.91.169 1.875-.797 2.635-1.172.553-.272.759-.225.525-.872-.394-1.096-.91-2.015-1.341-3.065-.45-1.106-.862-2.306-.713-3.525.835-.29 2.7 1.247 3.347 1.66.657.412 1.379.871 1.978 1.387.507.43.807 1.228 1.547 1.162.403-.028.76-.394 1.116-.534.628-.244.975-.572 1.556-.89a69 69 0 0 1 3.516-1.82c1.397-.665 1.322-.956.384-2.175-.525-.684-1.228-1.246-1.865-1.818-1.725-1.529-3.338-2.513-5.41-3.46-.76-.347-1.612-.393-2.353-.778-.694-.347-1.331-.487-2.119-.61a38.5 38.5 0 0 0-5.09-.487c-10.885-.356-20.85 7.397-24.985 17.335-.14-2.654-.037-5.344-.037-7.997 0-.9-.066-1.716.094-2.597.112-.628.422-2.86-.141-3.178-.788-.44-7.528-.347-7.097-1.238.413-.853 2.035-1.125 2.831-1.387.994-.328 2.007-.553 2.972-.957.713-.29 1.735-.234 2.325-.75.46-.403.413-1.171.535-1.706.168-.769 2.287-9.497 1.546-9.694-.421-.112-1.218.197-1.659.254-.656.093-1.331.328-1.969.515-.9.263-1.856.516-2.718.9-1.922.853-3.807 1.847-5.57 3.01A29 29 0 0 0 52.894 6.6c-3.759 3.094-6.543 7.088-7.48 12.01-.854 4.453.712 8.868 2.915 12.73-2.053-1.35-4.19-2.577-6.403-3.618-7.453-3.497-16.847-2.494-23.897 1.528-2.438 1.388-4.903 3.244-6.881 5.24-1.876 1.895-4.547 5.916-5.072 8.588-.104.544-.188 1.106-.272 1.66.037 0 .084.009.122.009.946.075 10.903 1.35 11.062.281.122-.825.835-1.622 1.181-2.362 1.022-2.175 4.163-6.403 7.125-5.756.122.637-.271 1.087-.515 1.668-.385.928-.75 1.856-1.135 2.785-.487 1.19-1.012 2.221-.843 3.525 1.218.15 2.55.018 3.778.018 1.069 0 2.137.113 3.206-.018.028 0 .834-2.522.966-2.87.43-1.05 1.115-1.902 1.865-2.746.403-.45 1.407-1.612 2.09-1.378.142.047-.393 4.95-.43 5.316-.094.75-.328 1.471-.235 2.23 2.39.638 4.894.535 7.331.779 1.07.112 2.147.3 3.216.506-.066 0-.131.01-.197.01-3.272.262-6.534.815-9.675 1.771-6.244 1.894-12.347 5.044-16.668 9.957-4.172 4.743-6.61 13.612-6.057 19.828.216 2.344.207 2.953.647 5.269.281 1.48.553 3.253 1.388 4.546.318.507 1.48 2.654 2.278 2.035.572-.44.881-1.332 1.303-1.922 1.134-1.575 2.325-3.103 3.45-4.688.506-.712 2.306-2.428 1.96-3.347-.404-1.05-.516-2.259-.648-3.365-.187-1.594-.28-3.225-.15-4.828.057-.694.15-1.397.385-2.053.103-.291.637-1.425 1.04-1.294.188.056.207.9.225 1.05.075.637.132 1.275.188 1.912.066.76.056 1.5.215 2.25.188.9.497 1.763.77 2.644.15.488.346 1.172.768 1.5.488.375.994-.253 1.322-.581a66 66 0 0 0 2.512-2.644c.347-.384.6-.853.938-1.266.103-.121.328-.234.394-.374.121-.263-.094-.854-.15-1.135-.113-.506-.31-1.003-.394-1.519-.188-1.096-.113-2.193 0-3.29.066-.666-.075-2.419.544-2.86.468-.337.365.441.365.713 0 1.387.31 2.728.75 4.04.188.554.356 1.229.75 1.679.544.609 1.078-.141 1.51-.535 1.359-1.256 2.718-2.512 4.096-3.75.291-.262.591-.525.891-.787.628-.525 1.275-1.032 1.913-1.547-1.407 2.119-2.513 4.425-3.16 6.872-.787 2.934-1.237 6.76-.769 9.768.422 2.738 1.425 5.841 2.963 8.176 1.21 1.828 3.244 3.825 5.231 4.8 1.322.646 2.588-3.282 2.869-4.004.422-1.125.731-2.315 1.21-3.421.374-.882 1.424-2.475.852-3.422-.243-.422-.571-.788-.815-1.247-1.369-2.54-3.234-4.8-2.878-7.913.356.075.712.675.91.994.459.769.852 1.594 1.377 2.316.516.712.872 1.546 1.51 2.203.422.431.768 1.003 1.34 1.275.75.356.9-.553 1.05-1.078.253-.92.788-1.697 1.144-2.57.337-.815.806-1.574 1.162-2.39.329-.75 1.013-1.678.863-2.54-.084-.478-.534-.872-.76-1.313-.3-.637-.6-1.275-.862-1.931a16 16 0 0 1-.516-1.575c-.074-.272-.074-.835-.224-1.013.309.488 1.106.9 1.537 1.313.394.365 1.763 2.006 2.41 1.612.89-.543 1.143-1.78 1.546-2.662.535-1.219 1.219-2.335 1.706-3.553.61-1.556 1.576-2.794 2.485-4.163.628-.956 1.406-1.762 2.016-2.718.346-.544 1.19-1.435 1.396-2.091 4.153 1.003 8.438 1.79 12.507 3.122 1.63.525 3.225 1.19 4.837 1.781 1.172.431 2.419.544 3.61.919.675.215 1.443.778 1.903-.028.328-.591.412-1.332.73-1.97.413-.824.629-1.65.835-2.54.169-.665.197-1.453.46-2.072.178-.403.43-1.35.768-1.622.722-.571.882.685 1.06 1.275.581 1.988.44 4.276.394 6.329-.029.947-.376 1.884-.263 2.822.431-.01.872.309 1.275.44.656.225 1.369.366 2.044.534.403.094 1.2.47 1.584.422.516-.065.469-.515.731-.928.694-1.06 1.182-2.297 1.622-3.506.563-1.528.666-3.225 1.472-4.66.028-.056.591 1.266.628 1.388.3.919.506 1.631.628 2.569.066.469.207.937.282 1.406.121.778.112 1.547.112 2.353 0 1.322-.141 2.747.019 4.05.975.14 1.875.89 2.794 1.2.703.235 6.59 2.428 6.59 2.606-.019-.543.244-1.115.3-1.659.066-.712.141-1.397.291-2.11.29-1.584.084-3.327-.038-4.94"/><path fill="#BDCF46" d="M43.593 65.597c-.272.169-.44.544-.59.834a24.2 24.2 0 0 0-1.997 5.175c-.694 2.663-.928 5.466-.544 8.194.244 1.79.778 3.544 1.528 5.194a21.5 21.5 0 0 0 1.303 2.41c.422.665.844 1.959 1.828 1.255.535-.375 1.397-1.79 1.163-2.493-.544-1.603-1.594-3.038-2.213-4.641-.665-1.716-.937-3.581-1.021-5.419a28.4 28.4 0 0 1 .196-4.64c.113-.9.253-1.782.432-2.672.093-.478.197-.956.309-1.425.075-.338.572-2.372-.394-1.772m-6.215-15.628a.64.64 0 0 0-.544-.085c-1.688.46-3.347 1.088-4.96 1.791-2.428 1.06-4.762 2.344-6.9 3.919-2.446 1.79-4.64 3.965-6.29 6.525-1.94 3.028-3.16 6.469-3.647 10.031-.375 2.813-.31 5.69.122 8.494.131.834.3 1.668.497 2.493.14.6.243 1.52.703 1.941.412.366.6.019.89-.31.497-.552 1.032-1.087 1.491-1.668.347-.431.338-1.012.206-1.537a24 24 0 0 1-.543-2.691 28 28 0 0 1-.291-3.975c0-1.622.16-3.244.478-4.838a22.7 22.7 0 0 1 1.753-5.278 22.7 22.7 0 0 1 3.535-5.306c1.697-1.903 3.684-3.544 5.83-4.913a37 37 0 0 1 3.938-2.174 39 39 0 0 1 2.25-.994c.413-.169 1.5-.338 1.66-.844.065-.262-.019-.469-.178-.581m-26.475-8.775c-.328-.666.262-1.34.721-2.035a24.8 24.8 0 0 1 7.763-7.565c2.803-1.725 5.944-2.832 9.178-3.375 1.05-.178 2.1-.263 3.15-.328.347-.02 4.078-.347 3.197.843-.234.31-.844.32-1.19.347-.938.085-1.876.225-2.794.422-1.81.384-3.572.956-5.26 1.706a25.4 25.4 0 0 0-6.29 3.957c-1.37 1.172-2.56 2.53-3.647 3.965-.638.844-1.163 2.278-2.232 2.69-.6.235-1.762.235-2.268-.205a1.4 1.4 0 0 1-.328-.422M54.262 9.272c-.112-.056-.263-.066-.44 0-.404.131-1.088.975-1.379 1.284-2.043 2.203-3.206 5.335-3.61 8.278-.243 1.716-.14 3.47.235 5.166.188.853.45 1.697.769 2.512.169.432.272.816.628 1.116.328.29.675.272 1.04.066.244-.14.629-.375.816-.59.413-.479-.121-1.21-.28-1.688-.479-1.407-1.079-2.794-1.248-4.275-.169-1.491.038-3.057.375-4.52.375-1.64.985-3.224 1.819-4.677.403-.703.89-1.332 1.34-1.997.198-.319.132-.572-.065-.675"/></svg>
